X: 3
T: Miners Of Wicklow, The
M: 6/8
L: 1/8
R: jig
K: Dmaj
|: B2 A |\ 
F2 A AB=c | B^AB G3 | BGE E2 G | AFD D2 G |
FAA AA/B/=c | B^AB G2 =A | Bcd e2 A | d2 A :|
|: B2 g |\ 
f2 d fdf | e2 c ec/d/e | f2 d fd/e/f | a^ga b2 =g |
fdf f2 A | ece e2 A | BB/c/d e2 A | d3 :|
